src/assets/icons/bell.svg

<?xml version="1.0" encoding="UTF-8"?>
<svg fill="none" viewBox="0 0 42 42" xmlns="http://www.w3.org/2000/svg">
<path d="m27.064 37.27c-0.1339 0.663-0.369 1.2714-0.709 1.8285-0.3509 0.5708-0.8103 1.0869-1.3746 1.5381-0.5679 0.4511-1.1829 0.7929-1.8521 1.0219s-1.3782 0.3418-2.127 0.3418c-0.7524 0-1.4614-0.1162-2.127-0.3418-0.6656-0.229-1.2841-0.5674-1.8484-1.0219-0.568-0.4546-1.0238-0.9673-1.3746-1.5381-0.3509-0.5708-0.5897-1.1996-0.7199-1.89-0.0651-0.335 0.1736-0.6563 0.5281-0.7178 0.0109 0 0.1158-0.0103 0.1158-0.0103h10.859c0.3617 0 0.6583 0.2769 0.6583 0.6221-0.0036 0.0581-0.0145 0.1128-0.0289 0.1675zm-19.754-37.183c0.66197-0.2495 1.4108 0.058104 1.6748 0.68357 0.26407 0.62547-0.06149 1.333-0.72346 1.5825-1.4325 0.54003-2.6334 1.2885-3.592 2.2592-0.95498 0.97068-1.6748 2.1738-2.1451 3.6195-0.20981 0.64256-0.93328 1.0048-1.6133 0.80662-0.68006-0.19824-1.0635-0.88181-0.85369-1.5244 0.58963-1.8115 1.5012-3.329 2.7202-4.5663 1.219-1.2338 2.7347-2.184 4.5325-2.8608zm26.428 2.266c-0.662-0.2495-0.9876-0.957-0.7235-1.5825 0.2641-0.62547 1.0129-0.93308 1.6748-0.68357 1.7978 0.67674 3.3135 1.6269 4.5326 2.8642 1.219 1.2407 2.1342 2.7582 2.7202 4.5663 0.2098 0.64256-0.1736 1.3261-0.8537 1.5244-0.6801 0.19823-1.4035-0.16406-1.6133-0.80662-0.4703-1.4492-1.1901-2.6523-2.1451-3.6195-0.9586-0.97409-2.1596-1.7226-3.592-2.2626zm-9.2785 1.2509c0.5317 0.12988 1.049 0.29052 1.5518 0.4785 0.738 0.27685 1.447 0.60838 2.127 0.9946 0.0253 0.01709 0.0543 0.03076 0.0796 0.04785 0.6511 0.37939 1.2588 0.79636 1.8159 1.2475 0.586 0.47509 1.1286 0.99802 1.635 1.5722l0.0037 0.00342c0.4955 0.56395 0.9369 1.1689 1.3275 1.808 0.3907 0.64255 0.7271 1.3124 1.0056 2.0028 0.2858 0.7144 0.4992 1.4424 0.6439 2.1909 0.1411 0.7519 0.2135 1.5209 0.2135 2.3105v2.5052c0.0036 0.7998 0.0072 1.5825 0.0144 2.3447v0.0068c0.0036 0.6904 0.0507 1.3843 0.1411 2.0781 0.0904 0.687 0.2207 1.3501 0.3907 1.9892 0.17 0.6289 0.4015 1.2373 0.6873 1.8183 0.2966 0.5981 0.6583 1.186 1.0816 1.7568h0.0036c0.4196 0.5605 0.9441 1.1176 1.5735 1.6645 0.6511 0.5639 1.4035 1.121 2.2645 1.6611 0.4919 0.311 0.6258 0.9433 0.293 1.4081-0.2062 0.2905-0.5462 0.4512-0.8935 0.4512v0.0034h-38.839c-0.59686 0-1.078-0.4546-1.078-1.0185 0-0.3691 0.20981-0.6938 0.5209-0.8716 0.87178-0.5571 1.6206-1.1108 2.2464-1.6576 0.62218-0.5435 1.1431-1.1006 1.5627-1.6748 0.01085-0.0171 0.02532-0.0342 0.03979-0.0478 0.40514-0.5606 0.75241-1.1314 1.0382-1.7124 0.293-0.5913 0.52813-1.1997 0.70176-1.8251 0.00362-0.0137 0.00723-0.0274 0.01085-0.0376 0.1664-0.6084 0.29301-1.251 0.37982-1.9243 0.08682-0.6767 0.13384-1.3774 0.13384-2.0986v-4.8191c0-0.7759 0.07235-1.5449 0.22066-2.3139 0.14831-0.7656 0.36174-1.5005 0.64751-2.2012 0.28215-0.7006 0.62218-1.3739 1.0165-2.0165 0.39067-0.63914 0.83922-1.2441 1.342-1.8183l0.0072-0.00683c0.4992-0.56395 1.0491-1.0903 1.6459-1.5722 0.5897-0.47508 1.2263-0.90915 1.91-1.2954 0.6909-0.38964 1.4071-0.71775 2.1451-0.98435 0.5136-0.18456 1.0454-0.33837 1.588-0.46483 0.1845-0.6118 0.5028-1.1074 0.955-1.4868 0.6221-0.52293 1.4397-0.78269 2.4561-0.77244 1.0057 0.00684 1.8196 0.27001 2.4345 0.79295 0.4486 0.3828 0.7705 0.87497 0.955 1.4834zm0.7705 2.3686c-0.5969-0.22216-1.2046-0.39647-1.8232-0.52293-0.4774-0.0581-0.8681-0.41356-0.9296-0.88523-0.0579-0.44432-0.1917-0.75535-0.4052-0.93308-0.2134-0.17772-0.5534-0.27001-1.02-0.27343-0.4667-0.00341-0.8031 0.08203-1.0093 0.25634-0.2098 0.17773-0.3436 0.49218-0.3979 0.94334-0.0506 0.43065-0.3943 0.79978-0.8718 0.88181-0.6692 0.11962-1.3167 0.29051-1.9425 0.51609-0.6258 0.22216-1.2226 0.49901-1.8014 0.82371-0.5752 0.3247-1.1142 0.69041-1.6134 1.0971-0.4991 0.40331-0.9658 0.84763-1.3926 1.333-0.4196 0.4785-0.7958 0.99461-1.1323 1.5414-0.3291 0.5401-0.6185 1.1143-0.8645 1.7227-0.24598 0.6049-0.42685 1.2201-0.54622 1.8353-0.11937 0.6187-0.17725 1.2715-0.17725 1.9551v4.8192c0 0.7997-0.05064 1.579-0.14831 2.3446-0.09767 0.7349-0.24236 1.4663-0.44132 2.1874-0.00361 0.0171-0.00723 0.0308-0.01085 0.0479-0.20619 0.7348-0.48472 1.456-0.8356 2.1669-0.34003 0.687-0.74518 1.3535-1.2118 1.9995l-0.04341 0.0615c-0.49196 0.6699-1.1178 1.3364-1.8738 1.9995l-0.02894 0.0239h32.581c-0.7379-0.6426-1.3601-1.3056-1.8666-1.9824v-0.0034c-0.4955-0.6699-0.9188-1.3569-1.2696-2.061-0.3582-0.7177-0.6331-1.4457-0.832-2.1772v-0.0034c-0.1954-0.728-0.3437-1.4765-0.4413-2.2421-0.0941-0.7314-0.1447-1.5039-0.1484-2.3139v-0.0034c-0.0072-0.7554-0.0108-1.5415-0.0144-2.3618-0.0073-1.5175-0.0073-2.3446-0.0073-2.5052 0-0.67-0.0578-1.3228-0.1808-1.9551-0.1194-0.6289-0.2966-1.2372-0.5318-1.8251v-0.0034c-0.2423-0.605-0.5281-1.1758-0.8537-1.7124-0.3255-0.5366-0.7017-1.0458-1.125-1.5312-0.4196-0.47509-0.879-0.91599-1.3782-1.3227-0.4847-0.39305-0.9984-0.74509-1.5373-1.063-0.0254-0.01026-0.0471-0.02393-0.0724-0.0376-0.586-0.3247-1.1865-0.60496-1.8014-0.83738z" fill="#fff"/>
</svg>

<svg width="42" height="42" viewBox="0 0 42 42" fill="none" xmlns="http://www.w3.org/2000/svg">
    <path d="M27.0645 37.2697C26.9306 37.9327 26.6955 38.5411 26.3555 39.0982C26.0046 39.669 25.5452 40.1851 24.9809 40.6363C24.413 41.0874 23.798 41.4292 23.1288 41.6582C22.4596 41.8872 21.7506 42 21.0018 42C20.2494 42 19.5404 41.8838 18.8748 41.6582C18.2092 41.4292 17.5907 41.0908 17.0264 40.6363C16.4584 40.1817 16.0026 39.669 15.6518 39.0982C15.3009 38.5274 15.0621 37.8986 14.9319 37.2082C14.8668 36.8732 15.1055 36.5519 15.46 36.4904C15.4709 36.4904 15.5758 36.4801 15.5758 36.4801H26.4351C26.7968 36.4801 27.0934 36.757 27.0934 37.1022C27.0898 37.1603 27.0789 37.215 27.0645 37.2697ZM7.31018 0.086707C7.97215 -0.162797 8.72094 0.144811 8.985 0.77028C9.24907 1.39575 8.92351 2.10325 8.26154 2.35275C6.82907 2.89278 5.62811 3.64129 4.66952 4.61196C3.71454 5.58264 2.99469 6.78572 2.52444 8.23148C2.31463 8.87404 1.59116 9.23633 0.911102 9.0381C0.231042 8.83986 -0.152396 8.15629 0.0574093 7.51373C0.647036 5.70226 1.55861 4.18473 2.77765 2.94746C3.99669 1.71361 5.51236 0.763445 7.31018 0.086707ZM33.7385 2.35275C33.0765 2.10325 32.7509 1.39575 33.015 0.77028C33.2791 0.144811 34.0279 -0.162797 34.6898 0.086707C36.4876 0.763445 38.0033 1.71361 39.2224 2.95088C40.4414 4.19156 41.3566 5.7091 41.9426 7.51715C42.1524 8.15971 41.769 8.84328 41.0889 9.04152C40.4088 9.23975 39.6854 8.87746 39.4756 8.2349C39.0053 6.78572 38.2855 5.58264 37.3305 4.61538C36.3719 3.64129 35.1709 2.89278 33.7385 2.35275ZM24.46 3.60369C24.9917 3.73357 25.509 3.89421 26.0118 4.08219C26.7498 4.35904 27.4588 4.69057 28.1388 5.07679C28.1641 5.09388 28.1931 5.10755 28.2184 5.12464C28.8695 5.50403 29.4772 5.921 30.0343 6.37216C30.6203 6.84725 31.1629 7.37018 31.6693 7.94438L31.673 7.9478C32.1685 8.51175 32.6099 9.11671 33.0005 9.75585C33.3912 10.3984 33.7276 11.0683 34.0061 11.7587C34.2919 12.4731 34.5053 13.2011 34.65 13.9496C34.7911 14.7015 34.8635 15.4705 34.8635 16.2601C34.8635 17.8186 34.8635 18.6628 34.8635 18.7653C34.8671 19.5651 34.8707 20.3478 34.8779 21.11V21.1168C34.8815 21.8072 34.9286 22.5011 35.019 23.1949C35.1094 23.8819 35.2397 24.545 35.4097 25.1841C35.5797 25.813 35.8112 26.4214 36.097 27.0024C36.3936 27.6005 36.7553 28.1884 37.1786 28.7592H37.1822C37.6018 29.3197 38.1263 29.8768 38.7557 30.4237C39.4068 30.9876 40.1592 31.5447 41.0202 32.0848C41.5121 32.3958 41.646 33.0281 41.3132 33.4929C41.107 33.7834 40.767 33.9441 40.4197 33.9441V33.9475H30.7071H21.0018H11.2893H1.58031C0.983448 33.9475 0.502342 33.4929 0.502342 32.929C0.502342 32.5599 0.712148 32.2352 1.02324 32.0574C1.89502 31.5003 2.64381 30.9466 3.26961 30.3998C3.89179 29.8563 4.41269 29.2992 4.8323 28.725C4.84315 28.7079 4.85762 28.6908 4.87209 28.6772C5.27723 28.1166 5.6245 27.5458 5.91027 26.9648C6.20327 26.3735 6.4384 25.7651 6.61203 25.1397C6.61565 25.126 6.61926 25.1123 6.62288 25.1021C6.78928 24.4937 6.91589 23.8511 7.0027 23.1778C7.08952 22.5011 7.13654 21.8004 7.13654 21.0792V16.2601C7.13654 15.4842 7.20889 14.7152 7.3572 13.9462C7.50551 13.1806 7.71894 12.4457 8.00471 11.745C8.28686 11.0444 8.62689 10.3711 9.02118 9.72851C9.41185 9.08937 9.8604 8.4844 10.3632 7.9102L10.3704 7.90337C10.8696 7.33942 11.4195 6.81307 12.0163 6.33115C12.606 5.85607 13.2426 5.422 13.9263 5.03578C14.6172 4.64614 15.3334 4.31803 16.0714 4.05143C16.585 3.86687 17.1168 3.71306 17.6594 3.5866C17.8439 2.9748 18.1622 2.47921 18.6144 2.09983C19.2365 1.5769 20.0541 1.31714 21.0705 1.32739C22.0762 1.33423 22.8901 1.5974 23.505 2.12034C23.9536 2.50314 24.2755 2.99531 24.46 3.60369ZM25.2305 5.97227C24.6336 5.75011 24.0259 5.5758 23.4073 5.44934C22.9299 5.39124 22.5392 5.03578 22.4777 4.56411C22.4198 4.11979 22.286 3.80876 22.0725 3.63103C21.8591 3.45331 21.5191 3.36102 21.0525 3.3576C20.5858 3.35419 20.2494 3.43963 20.0432 3.61394C19.8334 3.79167 19.6996 4.10612 19.6453 4.55728C19.5947 4.98793 19.251 5.35706 18.7735 5.43909C18.1043 5.55871 17.4568 5.7296 16.831 5.95518C16.2052 6.17734 15.6084 6.45419 15.0296 6.77889C14.4544 7.10359 13.9154 7.4693 13.4162 7.87602C12.9171 8.27933 12.4504 8.72365 12.0236 9.20899C11.604 9.68749 11.2278 10.2036 10.8913 10.7504C10.5622 11.2905 10.2728 11.8647 10.0268 12.4731C9.78082 13.078 9.59995 13.6932 9.48058 14.3084C9.36121 14.9271 9.30333 15.5799 9.30333 16.2635V21.0827C9.30333 21.8824 9.25269 22.6617 9.15502 23.4273C9.05735 24.1622 8.91266 24.8936 8.7137 25.6147C8.71009 25.6318 8.70647 25.6455 8.70285 25.6626C8.49666 26.3974 8.21813 27.1186 7.86725 27.8295C7.52722 28.5165 7.12207 29.183 6.65544 29.829C6.64097 29.8495 6.6265 29.87 6.61203 29.8905C6.12007 30.5604 5.49427 31.2269 4.73825 31.89L4.70931 31.9139H11.3001H21.0127H30.7108H37.2907C36.5528 31.2713 35.9306 30.6083 35.4241 29.9315V29.9281C34.9286 29.2582 34.5053 28.5712 34.1545 27.8671C33.7963 27.1494 33.5214 26.4214 33.3225 25.6899V25.6865C33.1271 24.9585 32.9788 24.21 32.8812 23.4444C32.7871 22.713 32.7365 21.9405 32.7328 21.1305V21.1271C32.7256 20.3717 32.722 19.5856 32.7184 18.7653C32.7111 17.2478 32.7111 16.4207 32.7111 16.2601C32.7111 15.5901 32.6533 14.9373 32.5303 14.305C32.4109 13.6761 32.2337 13.0678 31.9985 12.4799V12.4765C31.7562 11.8715 31.4704 11.3007 31.1448 10.7641C30.8193 10.2275 30.4431 9.71825 30.0198 9.23292C29.6002 8.75783 29.1408 8.31693 28.6416 7.9102C28.1569 7.51715 27.6432 7.16511 27.1043 6.84725C27.0789 6.83699 27.0572 6.82332 27.0319 6.80965C26.4459 6.48495 25.8454 6.20469 25.2305 5.97227Z" fill="white"/>
</svg>
